X: 22036
T: Knefsky Prospect
R: reel
M: 4/4
K: Gmajor
|:"G"d2cA BG (3GFG|"G"BGcA BGAF|"D"D3E FEFG|1 "D"ABcA dBcA:|2 "D"cAdc "G"BdGd||
|:"G"g3f gdBd|"Am"cA"D"dc "G"BdGB|1 "D"AD (3DED FGAB|"D"cABc defd:|2 "Am"A2ag "D"fdef "G"gbag "D"fdcA||

